_inc/images/badge-broken.svg

<?xml version="1.0" encoding="UTF-8" standalone="no"?>
<svg
   viewBox="0 0 37.795277 37.795277"
   version="1.1"
   id="svg8"
   sodipodi:docname="badge-broken.svg"
   width="10mm"
   height="10mm"
   inkscape:version="1.1 (c68e22c387, 2021-05-23)"
   xmlns:inkscape="http://www.inkscape.org/namespaces/inkscape"
   xmlns:sodipodi="http://sodipodi.sourceforge.net/DTD/sodipodi-0.dtd"
   xmlns="http://www.w3.org/2000/svg"
   xmlns:svg="http://www.w3.org/2000/svg">
  <defs
     id="defs12" />
  <sodipodi:namedview
     id="namedview10"
     pagecolor="#ffffff"
     bordercolor="#666666"
     borderopacity="1.0"
     inkscape:pageshadow="2"
     inkscape:pageopacity="0.0"
     inkscape:pagecheckerboard="true"
     showgrid="false"
     units="mm"
     width="10mm"
     inkscape:zoom="21.825"
     inkscape:cx="6.0710195"
     inkscape:cy="15.005727"
     inkscape:window-width="2560"
     inkscape:window-height="1377"
     inkscape:window-x="-8"
     inkscape:window-y="-8"
     inkscape:window-maximized="1"
     inkscape:current-layer="svg8"
     inkscape:document-units="mm" />
  <g
     id="g947"
     transform="matrix(3.067875,0,0,3.067875,-11.781112,-11.205885)">
    <path
       d="M 9.062,5.438 C 9.062,4.922 9.484,4.5 10,4.5 c 0.516,0 0.937,0.42 0.937,0.938 v 5 c 0,0.517 -0.419,0.937 -0.937,0.937 -0.518,0 -0.938,-0.418 -0.938,-0.937 z"
       style="fill:#ffffff"
       id="path4" />
    <path
       d="m 10,15.125 c -0.678,0 -1.228,-0.55 -1.228,-1.228 0,-0.678 0.549,-1.228 1.228,-1.228 0.679,0 1.228,0.55 1.228,1.228 -10e-4,0.677 -0.548,1.228 -1.228,1.228 z"
       style="fill:#ffffff"
       id="path6" />
  </g>
</svg>

<?xml version="1.0" encoding="utf-8"?>
<svg viewBox="0 0 20 20" xmlns="http://www.w3.org/2000/svg">
  <circle vector-effect="non-scaling-stroke" cx="10" cy="10" r="10" fill="rgb(17,17,17)"/>
  <path d="M 9.062 5.438 C 9.062 4.922 9.484 4.5 10 4.5 C 10.516 4.5 10.937 4.92 10.937 5.438 L 10.937 10.438 C 10.937 10.955 10.518 11.375 10 11.375 C 9.482 11.375 9.062 10.957 9.062 10.438 L 9.062 5.438 Z" style="fill: rgb(153, 153, 153);"/>
  <path d="M 10 15.125 C 9.322 15.125 8.772 14.575 8.772 13.897 C 8.772 13.219 9.321 12.669 10 12.669 C 10.679 12.669 11.228 13.219 11.228 13.897 C 11.227 14.574 10.68 15.125 10 15.125 Z" style="fill: rgb(153, 153, 153);"/>
</svg>
